X:1
T:Clair de Lune for Viola
T:Clair de Lune for Viola and Piano 
T:Debussy 
C:Debussy
%%score ( 1 2 ) { ( 3 7 8 ) | ( 4 5 6 ) }
L:1/8
Q:1/4=90
M:9/8
K:A
V:1 alto nm="Viola" snm="Vla."
V:2 alto 
V:3 treble nm="Piano" snm="Pno."
V:7 treble 
V:8 treble 
V:4 treble 
V:5 treble 
V:6 treble 
V:1
!pp! z z (e- e3 c3-) | c(Bc B6-) | B(AB!<(! (2:3:2Ac- (2:3:2cA-!<)! |!>(! A)(GA!p! G6-)!>)! | %4
!pp! G(FG FBF EFE- | EDE D3) C3- |!<(! C(CD CFC B,CB,-!<)! |!mp!!>(! B,A,B, A,3)!>)!!pp! G,3 | %8
!p! z E, z (e3 c3-) | c(Bc B6- |!<(! B)(AB e3 c3-)!<)! |!mp! c(Bc B3 A3-) | %12
 A(AB!>(! (2:3:2fe- (2:3:2ec-)!>)! |!p! c(Bc (2:3:2BA- (2:3:2AF) | %14
!pp! (2:3:2z (c- c!tenuto!B!tenuto!B !tenuto!B!tenuto!A!tenuto!A | %15
 !tenuto!A!tenuto!G!tenuto!G (2:3:2!tenuto!G!tenuto!A !tenuto!F3) | %16
!pp!"^Tempo rubato" (2:3:2z (c- c!tenuto!d!tenuto!c !tenuto!B!tenuto!c!tenuto!B | %17
 !tenuto!A!tenuto!B!tenuto!A (2:3:2!tenuto!G{/B}!tenuto!A !tenuto!F3) | (6:9:6z (DEGFD) | z9 | %20
 (6:9:6z DEAFD | z9 | (6:9:6z DEBAF | z9 | e6 e3 | e6 e3 |"^un poco mosso" (E6 =G2 A) | %27
 (E6 =G2 E) |!<(! A2 B c3 A2 c!<)! |!mp! ^dcA A3 z3 |!p! (F6 G2 c) | (F6 G2 c) | %32
 d3- d3/2c3/2^A3/2B3/2 | F6 E3 | (E6 =G2 A) | (E6 =G2 E) |[K:C] (x2 E) (x2 A) (x2 c) | (E3 D6) | %38
 (D6 F2 A) | (D6 F2 A | cBA (2:3:2GF- FED |"_dim." cBA GFE- EDC) |[K:A] B,6 D2 F | B,6 D2 F | z9 | %45
 z9 | (B6 d2 f | B6 d2 F) | B6- B3- | B3 A3 B3 | z3 e3 c3- | cBc B6- | B(AB (2:3:2Ac- (2:3:2cA- | %53
 AGA G6) | z9 | z9 | z9 | z9 |!p! z E, z (e3 c3) | z Bc B6- | BAB e3 c3- |!mp! c(Bc B3 A3) | z9 | %63
 z DE A3 F3 | z9 | z9 | z2 z ((=G3 A3)) | z9 | x3 (=G3 A3) | (=G3 A3 =c3) |!>(! e6- e3!>)! | %71
!ppp! e6 z3 |] %72
V:2
 x9 | x9 | x9 | x9 | x9 | x9 | x9 | x9 | x9 | x9 | x9 | x9 | x9 | x9 | x9 | x9 | x9 | x9 | x9 | %19
 x9 | x9 | x9 | x9 | x9 | x9 | x9 | x9 | x9 | x9 | x9 | x9 | x9 | x9 | x9 | x9 | x9 | %36
[K:C] A3/2 x/ E/ x/ c3/2 x/ A/ x/ e3/2 x/ c/ x/ | x9 | x9 | x9 | x9 | x9 |[K:A] x9 | x9 | x9 | x9 | %46
 x9 | x9 | x9 | x9 | x9 | x9 | x9 | x9 | x9 | x9 | x9 | x9 | x9 | z z2 z6 | x z2 x6 | x z2 z6 | %62
 x9 | x9 | x9 | x9 | x9 | x9 | x9 | x9 | x9 | x9 |] %72
V:3
!pp! z z (!stemless!c- c3 A3-) | A(GA G6-) | G(FG!<(! F6-!<)! |!>(! F)(EF!p! E6)!>)! |!pp! D6 D3 | %5
 B,6 B,3 |!<(! A,6- A,3!<)! |!mp!!>(! F,6!>)!!pp! E,3 |!p! z z z (c3 A3-) | A ([DF]2- [DF]6 | %10
!<(! z) (E2 [EA]3 [CA]3)!<)! |!mp! z [DF]2- [DF]6 | z E2!>(! c6!>)! |!p! z [DF]2- [DF]6 | %14
!pp! (2:3:2z ([cfc']- [cfc']!tenuto![Bfb]!tenuto![Bfb] !tenuto![Bfb]!tenuto![Afa]!tenuto![Afa] | %15
 !tenuto![Afa]!tenuto![Gdfg]!tenuto![Gdfg] (2:3:2!tenuto![Gdfg]!tenuto![Afa] !tenuto![Fdf]3) | %16
!pp!"^Tempo rubato" (2:3:2z ([cfc']- [cfc']!tenuto![dfd']!tenuto![Bfc'] !tenuto![Bfb]!tenuto![cfc']!tenuto![Bfb] | %17
 !tenuto![Afa]!tenuto![Bfb]!tenuto![Afa] (2:3:2!tenuto![Gfg]{/b}!tenuto![Afa] !tenuto![Fdf]3-) | %18
"_cresc." (6:9:6[Fdf](D[EB]G[Fd]D) | z ([DGBd][DGBd] [DGBd][DGBd][=EGB=e] [DGBd]3) | %20
 (6:9:6z DEAFD |!mf!!f!!mf! z ([DGBd][DGBd] [DGBd][DGBd][EGBe] [DGBd]3) |"_dim." (6:9:6z DEBAF | %23
"_rall..."!mp!!>(! z [Fdf][Fdf] [Fdf][Fdf][Geg] [Fdf][Afa][Bfb]!>)! | %24
!p!!8va(! !arpeggio![xAceae']6 !arpeggio![xA=ceae']3 | %25
 !arpeggio![xABdeae']6!8va)! !arpeggio![EBe]3 |"^un poco mosso" (C6 =G2 z) | ([^CE]6 [E=G]2 E) | %28
!<(! (^C2 E A3 C2 A!<)! |!mp! BAF z3) z2 z |!p! (z6 z2 z) | (z6 z2 z) | (z3 d3/2c3/2^A3/2B3/2 | %33
 f6 e3) | (c6 e2 z) | (^c6 e2 z) |[K:C] (z3/2 A/e/)c/ (z3/2 c/a/)e/ (z3/2 e/c'/)a/ | (z3 z6) | %38
 (d'6 f'2 a') | (d6 f2 a | [ac'][gb][fa] (2:3:2[eg][df]- [df][ce][Bd] | %41
"_dim." [Ac][GB][FA] [EG][DF][CE]- [CE][B,D][A,C]) |[K:A]"^Calmato"!pp! ([A,B,]6 [B,D]2 [B,DF]) | %43
 ([A,B,]6 [B,D]2 [B,D-F-]) | [A,DF]([EGc][DFB] [DF]3 [DE]3) | ([A,DF][EGc][DFB] [DF]3 [DE]3) | %46
 (B6 d2 f | B6 d2 f) | b6- b3- | b3 a3 b3 |"^Tempo I"!>(! z2 z!>)!!8va(! ([c'e']3 c'3-!pp! | %51
 c'[gb][ac'] [gb]6- | [gb])([fa][gb] (2:3:2[fa][ac']- (2:3:2[ac'][fa]- | %53
 [fa][eg][fa] [eg]6)!8va)! | z ([df][eg] fbf efe- | [ce][Bd][ce] [Bd]3 [=Fc-]3) | %56
 c([Ac][Bd] cfc BcB- | B!>(![FA][GB] [FA]3 [EG]3)!>)! |!p! z[K:bass] C, z[K:treble] (c3 A3-) | %59
 [Ac] z z z6 |!<(! z (A,B, [EA]3 [CA]3)!<)! |!mp! z (z z z3 z3) | z (A,B, [A,CF]3 [E,A,C]3) | %63
 z DE A3 F3 | z!>(! FG c3 [G,DE]3!>)!"^m.s." | x9!pp! | z2 z ((=G3 A3)) | x9 | x3 (=g3 a3) | %69
 (=g3 a3 =c'3) |!>(! [_d'e']6- [c'e']3!>)! |!ppp! !arpeggio![xeac'e']6 z3 |] %72
V:4
"_con sordina"!ped! z C2- [CE]6!ped-up! |!ped! [D=F]6- [DF]3!ped-up! |!ped! [C=E]6- [CE]3!ped-up! | %3
!ped! [B,D]6- [B,D]3!ped-up! |[K:bass]!ped! [A,B,]6 [G,B,]3!ped-up! | %5
!ped! [F,A,]6 [=F,G,]3!ped-up! |!ped! [=E,F,-]6 [D,F,]3!ped-up! | %7
!ped! [C,E,]6 (2:3:2B,,E,,-!ped-up! |!ped! ([A,,,E,,] z[K:treble] [CE]- [CE]6)!ped-up! | %9
[K:bass]!ped! [D,,A,,]6 z2 z!ped-up! |!ped! z [C,E,]2 [A,C]3 [E,A,]3!ped-up! | %11
!ped! [D,,A,,]6 x2 x!ped-up! |!ped! E,,6- E,,3!ped-up! |!ped! z B,2- (2:3:2B,A,- A,3!ped-up! | %14
 (2:3:2z[K:treble] ([CDF]- [CDF]!tenuto![B,DF]!tenuto![B,DF] !tenuto![B,DF]!tenuto![A,DF]!tenuto![A,DF] | %15
 !tenuto![A,DF]!tenuto![G,DF]!tenuto![G,DF] (2:3:2!tenuto![G,DF]!tenuto![A,DF] !tenuto![D,F,D]3) | %16
[K:bass] (2:3:2z[K:treble] [CDF]- ([CDF]!tenuto![DFB]!tenuto![CDF] !tenuto![B,DF]!tenuto![CDF]!tenuto![CDF] | %17
 !tenuto![A,DF]!tenuto![B,DF]!tenuto![A,DF] (2:3:2!tenuto![G,DF]!tenuto![A,DF] !tenuto![F,B,D]3) | %18
[K:bass]!ped! (6:9:6z (D,E,G,F,D,)!ped-up! | %19
 z ([D,G,B,][D,G,B,] [D,G,B,][D,G,B,][E,G,B,] [D,G,B,]3) | %20
!ped! (6:9:6z ([D,F,A,]E,A,F,D,)!ped-up! | %21
!ped! z ([D,G,B,][D,G,B,] [D,G,B,][D,G,B,][E,G,B,] [D,G,B,]3)!ped-up! | %22
!ped! (6:9:6z ([D,F,A,]E,A,F,D,)!ped-up! | %23
!ped! z[K:treble] [F,A,D][F,A,D] [F,A,D][F,A,D][G,B,E] [F,A,D][A,DF][A,DF]!ped-up! | [CE]6 [=CE]3 | %25
 [B,E]6 !arpeggio![E,B,DG]3 | %26
[K:bass]!ped!(x/E,,/A,,/C,/[I:staff -1]E,/A,/)[I:staff +1](x/G,,/C,/[I:staff -1]E,/G,/C/)[I:staff +1](x/=C,/E,/[I:staff -1]=G,/=C/E/)!ped-up! | %27
!ped![I:staff +1]x/E,,/A,,/C,/[I:staff -1]E,/A,/[I:staff +1]x/G,,/C,/[I:staff -1]E,/G,/C/[I:staff +1]x/=C,/E,/[I:staff -1]=G,/E/=C/!ped-up! | %28
!ped![I:staff +1] (A,,,/E,,/A,,/^C,/E,/A,/ C/E/C/A,/E,/C,/ E,/C,/A,,/E,,/A,,/E,,/)!ped-up! | %29
!ped! B,,,/F,,/B,,/^D,/F,/B,/ ^D/B,/F,/D,/B,,/F,,/ B,,,/F,,/B,,/D,/B,,/F,,/!ped-up! | %30
!ped!x/B,,/=D,/F,/[I:staff -1]G,/=D/[I:staff +1]x/A,,/D,/F,/[I:staff -1]A,/D/[I:staff +1]x/G,,/C,/E,/G,!ped-up! | %31
!ped!x/B,,/D,/F,/[I:staff -1]G,/D/[I:staff +1]x/A,,/D,/F,/[I:staff -1]A,/D/[I:staff +1]x/G,,/C,/E,/G,!ped-up! | %32
!ped!x/F,,/B,,/D,/F,/B,/ D3/2C3/2^A,3/2B,3/2!ped-up! | %33
[K:treble]!ped!x/D/F/[I:staff -1]F/d/f/[I:staff +1]x/D/F/[I:staff -1]F/d/f/[I:staff +1] G,/=C/E/[I:staff -1]G/=c/e/!ped-up! | %34
[I:staff +1][K:bass]!ped!x/E,/A,/C/[I:staff -1]E/A/[I:staff +1]x/G,/C/[I:staff -1]E/G/c/[I:staff +1] =G,/=C/E/[I:staff -1]=G/=c/e/!ped-up! | %35
!ped![I:staff +1]x/E,/A,/C/[I:staff -1]E/A/[I:staff +1]x/G,/C/[I:staff -1]E/G/c/[I:staff +1] =G,/=C/E/[I:staff -1]=G/=c/e/!ped-up! | %36
[K:C][I:staff +1][K:treble]!ped! A,/C/E<G C/E/G<A E/G/A<c!ped-up! | %37
!ped!x/F/A/[I:staff -1]e/a/f/[I:staff +1]x/F/A/[I:staff -1]d/a/f/[I:staff +1] D/F/A/[I:staff -1]d/a/f/!ped-up! | %38
!ped![I:staff +1] D/F/A/[I:staff -1]d/a/f/[I:staff +1] D/F/A/[I:staff -1]d/a/f/[I:staff +1] C/F/A/c/[I:staff -1]a'/a/!ped-up! | %39
!ped![I:staff +1]x/B,/D/[I:staff -1]D/A/F/[I:staff +1]x/A,/C/[I:staff -1]D/A/F/[I:staff +1]x/A,/C/F/[I:staff -1]c/f/!ped-up! | %40
!ped![I:staff +1] D,/A,/C/D/F/A/ c/d/c/A/F/D/ C/D/C/A,/F,/D,/!ped-up! | %41
[K:bass]!ped! D,,/A,,/C,/D,/F,/A,/ C/A,/F,/D,/C,/A,,/ D,,/A,,/D,,/A,,/D,,/A,,/!ped-up! | %42
[K:A]!ped! E,,/B,,/E,,/B,,/E,,/B,,/ E,,/B,,/E,,/B,,/E,,/B,,/ E,,/B,,/E,,/B,,/E,,/B,,/!ped-up! | %43
!ped! E,,/B,,/E,,/B,,/E,,/B,,/ E,,/B,,/E,,/B,,/E,,/B,,/ E,,/B,,/E,,/B,,/E,,/B,,/!ped-up! | %44
!ped! E,,/B,,,/E,,/B,,/E,,/B,,/ E,/B,,/E,/B,/E,/B,,/ E,/B,,/E,,/B,,/E,,/B,,,/!ped-up! | %45
!ped! E,,/B,,,/E,,/B,,/E,,/B,,/ E,/B,,/E,/B,/E,/B,,/ E,/B,,/E,/B,,/E,/B,,/!ped-up! | %46
!ped! A,6 G,3!ped-up! |!ped! A,6 G,3!ped-up! | %48
[K:treble]!ped! D/F/A/[I:staff -1]B/d/f/[I:staff +1] D/F/A/[I:staff -1]B/d/g/[I:staff +1] D/F/A/[I:staff -1]B/d/f/!ped-up! | %49
!ped![I:staff +1] D/=F/A/[I:staff -1]B/d/=f/[I:staff +1] D/F/A/[I:staff -1]B/d/=g/[I:staff +1] D/F/A/[I:staff -1]B/d/f/!ped-up! | %50
!ped![I:staff +1]x/E/G/c/e/g/ z3 C3!ped-up! |!ped!x/=F/G/B/c/=f/ z3 C3!ped-up! | %52
!ped!x/=E/F/A/c/e/ z3 C3!ped-up! |!ped!x/D/E/G/B/d/ z3 B,3!ped-up! | %54
!ped!x/B,/D/F/A/B/ z3 !arpeggio![G,B,CEG]3!ped-up! | %55
[K:bass]!ped! G,,/D,/F,/G,/B,/D/[K:treble] F3 [G,B,]3!ped-up! | %56
!ped!x/F,/A,/C/E/F/ z2 z !arpeggio![D,F,A,B,]3!ped-up! | %57
[K:bass]!ped!x/E,/F,/A,/C/E/ z2 z [D,G,]3!ped-up! | %58
!ped! ([A,,,E,,][I:staff -1]C,[I:staff +1][K:treble][CE]- [CE]6)!ped-up! | %59
[K:bass]!ped! [D,,A,,]6 x2 x!ped-up! |!ped! z [C,E,]2 [=G,-A,-C]3 [G,A,]3!ped-up! | %61
!ped! z [C,F,]2 [C,F,]6!ped-up! |!ped! C,,6- C,,3!ped-up! |!ped! B,,,6 x2 x!ped-up! | %64
!ped! (2:3:2E,,B,,[I:staff -1] e3[I:staff +1] E,3!ped-up! | %65
!ped!(x/E,,/A,,/C,/[I:staff -1]E,/A,/)[I:staff +1](x/G,,/C,/[I:staff -1]E,/G,/C/)[I:staff +1](x/E,,/A,,/C,/[I:staff -1]E,/A,/)!ped-up! | %66
!ped![I:staff +1](x/G,,/C,/[I:staff -1]E,/G,/C/)[I:staff +1](x/=C,/E,/=G,/=C/D/) E3!ped-up! | %67
!ped! A,,/E,/A,/C/[I:staff -1]E/G/[I:staff +1] C,/G,/C/[I:staff -1]E/G/c/[I:staff +1] A,,/E,/A,/C/[I:staff -1]E/A/!ped-up! | %68
!ped![I:staff +1](x/G,/C/[I:staff -1]E/G/c/)(x/=G,/=C/D/=G/=c/-) c3!ped-up! | %69
!ped!(x/=G,/=C/D/=G/=c/-) c3[I:staff +1] E,,3!ped-up! | %70
!ped! (A,,,/E,,/A,,/C,/E,/A,/[I:staff -1] CEA cea)!ped-up! |!ped![I:staff +1] x6 z3!ped-up! |] %72
V:5
 x E-[I:staff -1]c x6 | x9 | x9 | x9 |[I:staff +1][K:bass] x9 | x9 | x9 | x6 D, z2 | z9[K:treble] | %9
[K:bass] z [A,,D,F,A,]2- [A,,D,F,A,]6 | [C,,A,,]6 x3 | x [A,,D,F,A,]2- [A,,D,F,A,]6 | %12
 z [C,=G,]2 [G,A,C]3- [G,A,C] z z | F,,6 x3 | [B,,,,B,,,]6[K:treble] x3 | x9 | %16
[K:bass] [B,,,,B,,,]6[K:treble] x3 | x9 |[K:bass] [E,,,E,,]6 x3 | [=F,,,=F,,]6 x3 | [F,,,F,,]6 x3 | %21
 [G,,,G,,]6 x3 | [F,,,F,,]6 x3 | [B,,,B,,]6[K:treble] x3 | x9 | x9 |[K:bass] A,,,3 C,,3 E,,3 | %27
 A,,,3 C,,3 E,,3 | x9 | x9 | E,,3 D,,3 C,,3 | E,,3 D,,3 C,,3 | B,,,3 x6 |[K:treble] ^A,3 B,3 E,3 | %34
[K:bass] A,,3 E,3 E,3 | A,,3 E,3 E,3 |[K:C][K:treble] G,3 A,3 C3 | E3 D3 ^C3 | =C3 B,3 A,3 | %39
 G,3 F,3 E,3 | x9 |[K:bass] x9 |[K:A] x9 | x9 | x9 | x9 | D,2 E, F,2 A,x/B,/D/F/[I:staff -1]G/B/ | %47
[I:staff +1] D,2 E, F,2 A,x/B,/D/F/[I:staff -1]G/B/ |[I:staff +1][K:treble] x9 | x9 | C6 x3 | %51
 _D6 x3 | C6 x3 | B,6 x3 | A,6 x3 |[K:bass] x3[K:treble] x3 C,3 | E,6 x3 | %57
[K:bass] C,6 (2:3:2B,,E,, | x2[K:treble] x =G,6 |[K:bass] x [A,,D,F,A,]2- [A,,D,F,A,]6 | E,,6 x3 | %61
 F,,6 x3 | x9 | x3 (B,,3 B,3) | x9 | A,,,3 C,,3 A,,,3 | C,,3 E,,3 x3 | x9 | %68
 C,3[I:staff -1] E,3 x3 | E,3 x6 | x9 | x9 |] %72
V:6
 x9 | x9 | x9 | x9 |[K:bass] x9 | x9 | x9 | x9 | x2[K:treble] x7 |[K:bass] x9 | x9 | x9 | x9 | %13
 x [C,F,]2- [C,F,]6 | x3/2[K:treble] x15/2 | x9 |[K:bass] F,,6[K:treble] x3 | x9 | %18
[K:bass] x3 [G,B,]3 [B,D]3 | x9 | x6 [A,D]3 | x9 | x6 [B,D]3 | x[K:treble] x8 | x9 | x9 | %26
[K:bass] x9 | x9 | x9 | x9 | x9 | x9 | x9 |[K:treble] x9 |[K:bass] x9 | x9 |[K:C][K:treble] x9 | %37
 x9 | x9 | x9 | x9 |[K:bass] x9 |[K:A] x9 | x9 | x9 | x9 | x9 | x9 |[K:treble] x9 | x9 | x9 | x9 | %52
 x9 | x9 | x9 |[K:bass] x3[K:treble] x6 | x9 |[K:bass] x9 | x2[K:treble] x7 |[K:bass] x9 | x9 | %61
 z B,2- B,3 A,3 | x9 | x9 | x9 | x9 | x9 | x9 | x9 | x9 | x9 | x9 |] %72
V:7
 x9 | x9 | x9 | x9 | x9 | x9 | x9 | x9 | x9 | x9 | x9 | x9 | x9 | x9 | x9 | x9 | x9 | x9 | x9 | %19
 x9 | (6:9:4x A2 x d2 | x9 | (6:9:4x [FA]2 x [df]2 | x9 |!8va(! x9 | x6!8va)! x3 | x6 z3 | x9 | %28
 x9 | x3[I:staff +1] (^D!>(![I:staff -1]CA, A,3/2F,3/2)!>)! | x8 E/C/ | x8 E/C/ | %32
x3x/D/F/x/D/F/x/D/F/x/D/F/ | x9 | x9 | x9 |[K:C] x9 | x9 | x9 | x9 | x9 | x6 F,3 | %42
[K:A] (D,2 E, F,2 A, G,3) | (D,2 E, F,2 A, G,3) | x3 A,F,A, F,G,B, | x3 A,F,A, F,G,B, | %46
x/B,/D/F/D/B,/ z/ B,/D/F/D/B,/ x3 |x/B,/D/F/D/B,/ z/ B,/D/F/D/B,/ x3 | x9 | x9 | x3!8va(! x6 | x9 | %52
 x9 | x9!8va)! | x3 d3 c3- | x9 | x3 (A3 A3) | x9 | x[K:bass] x2[K:treble] x6 | z [DF]2- [DF]6 | %60
 x E2 x6 | x [DF]2- [DF]6 | x E,2 x6 | x [F,A,]2 [DF]3 [A,D]3 | x [G,D]2 [EG]3 x3 | x9 | %66
 x3 (E3 =C3) | x9 | x3 e6 | e6 x3 | x9 | [A,EAc]6 x3 |] %72
V:8
 x9 | x9 | x9 | x9 | x9 | x9 | x9 | x9 | x9 | x9 | x9 | x9 | x9 | x9 | x9 | x9 | x9 | x9 | x9 | %19
 x9 | x9 | x9 | x9 | x9 |!8va(! x9 | x6!8va)! x3 | x9 | x9 | x9 | x3 F3 z2 z | x9 | x9 | x9 | x9 | %34
 x9 | x9 |[K:C] x9 | x9 | x9 | x9 | x9 | x9 |[K:A] x9 | x9 | x9 | x9 | x9 | x9 | x9 | x9 | %50
 x3!8va(! x6 | x9 | x9 | x9!8va)! | x9 | x9 | x9 | x9 | x[K:bass] x2[K:treble] x6 | x9 | x9 | x9 | %62
 x9 | x9 | x9 | x9 | x9 | x9 | x9 | x9 | x9 | x9 |] %72

